site/public/images/empowernow-logo.svg

<svg height="100" viewBox="0 0 366 100" width="366" xmlns="http://www.w3.org/2000/svg" xmlns:xlink="http://www.w3.org/1999/xlink"><linearGradient id="a" x1="-0%" x2="99.025747%" y1="39.594662%" y2="39.594662%"><stop offset="0" stop-color="#8862ff"/><stop offset=".151906687" stop-color="#2b92ff"/><stop offset=".328589379" stop-color="#0ab2ff"/><stop offset=".494700612" stop-color="#04c8f0"/><stop offset=".641690341" stop-color="#00df9d"/><stop offset=".796219406" stop-color="#5ad830"/><stop offset=".910893794" stop-color="#f6be05"/><stop offset="1" stop-color="#fbb604"/></linearGradient><path d="m0 80.402h356.848v-5.082h-356.848zm329.888-21.09-8.696-27.585h7.141l5.413 18.543h.231l6.22-18.543h6.277l6.219 18.543h.23l5.471-18.543h7.141l-8.754 27.585h-7.198l-6.162-18.717h-.173l-6.162 18.717zm-81.493 0h-7.314v-40.312h7.486l18.256 27.93h.173v-27.93h7.313v40.312h-7.486l-18.256-27.931h-.172zm-22.23 0h-6.911v-27.585h6.22l.403 4.204h.172c1.325-2.937 4.205-4.722 7.545-4.722.978 0 1.9.172 2.591.46v6.335c-.806-.115-1.613-.173-2.361-.173-5.068 0-7.659 2.707-7.659 8.35zm-25.226-22.575c3.341 0 5.817 1.785 6.45 5.758h-13.706c.922-3.8 3.686-5.758 7.256-5.758zm-.058 23.265c6.566 0 11.576-3.455 13.016-9.329h-6.508c-1.094 2.246-3.455 3.513-6.392 3.513-3.973 0-6.968-2.303-7.544-6.968h20.617c.172-.979.23-1.728.23-2.591 0-8.294-5.644-13.591-13.361-13.591-8.293 0-14.339 5.989-14.339 14.685 0 8.465 5.816 14.281 14.281 14.281zm-51.372-.69-8.696-27.585h7.141l5.413 18.543h.231l6.219-18.543h6.277l6.22 18.543h.23l5.471-18.543h7.141l-8.754 27.585h-7.198l-6.162-18.717h-.173l-6.161 18.717zm-24.535-22.114c4.261 0 7.314 3.224 7.314 8.35 0 5.068-3.053 8.35-7.314 8.35-4.262 0-7.313-3.282-7.313-8.35 0-5.126 3.051-8.35 7.313-8.35zm0 22.804c8.293 0 14.34-5.931 14.34-14.454s-6.047-14.512-14.34-14.512-14.34 5.989-14.34 14.512 6.047 14.454 14.34 14.454zm-39.22-14.454c0-5.241 2.995-8.35 7.141-8.35 4.204 0 7.199 3.109 7.199 8.35 0 5.183-2.995 8.292-7.199 8.292-4.146 0-7.141-3.109-7.141-8.292zm21.365 0c0-8.696-5.528-14.512-12.612-14.512-3.8 0-7.198 1.669-8.638 4.203h-.23l-.288-3.512h-6.277v40.484h6.91v-16.24h.173c1.44 2.362 4.607 4.031 8.35 4.031 7.026 0 12.612-5.816 12.612-14.454zm-34.441-3.513v17.277h-6.91v-15.262c0-4.779-1.786-6.679-4.78-6.679-3.341 0-5.702 2.361-5.702 7.025v14.916h-6.91v-15.262c0-4.837-1.67-6.679-4.722-6.679-3.398 0-5.702 2.418-5.702 7.025v14.916h-6.91v-27.585h6.277l.288 3.512h.23c1.67-2.591 4.952-4.203 8.351-4.203 3.455 0 6.162 1.612 7.716 4.722h.173c1.901-2.822 5.298-4.722 9.214-4.722 5.644 0 9.387 3.858 9.387 10.999zm-47.685 17.277h-24.993v-40.312h24.993v6.68h-17.679v10.136h15.951v6.507h-15.951v10.308h17.679zm262.623-24.92 10.614-3.715 10.615 3.715.038 10.348c-.014 1.561-.018 7.881-10.653 11.411-10.634-3.53-10.638-9.85-10.652-11.411zm10.614 29.883s17.721-5.152 17.704-17.487c.037-11.942 0-17.23 0-17.23l-17.704-6.008-17.703 6.008s-.038 5.288 0 17.23c-.016889 12.335 17.703 17.487 17.703 17.487z" fill="url(#a)" fill-rule="evenodd"/></svg>

<?xml version="1.0" encoding="UTF-8"?>
<svg width="366px" height="100px" viewBox="0 0 366 100" version="1.1" xmlns="http://www.w3.org/2000/svg" xmlns:xlink="http://www.w3.org/1999/xlink">
    <title>EmpowerNow Logo@3x</title>
    <defs>
        <linearGradient x1="-1.76074433e-14%" y1="39.5946618%" x2="99.0257473%" y2="39.5946618%" id="linearGradient-1">
            <stop stop-color="#8862FF" offset="0%"></stop>
            <stop stop-color="#2B92FF" offset="15.1906687%"></stop>
            <stop stop-color="#0AB2FF" offset="32.8589379%"></stop>
            <stop stop-color="#04C8F0" offset="49.4700612%"></stop>
            <stop stop-color="#00DF9D" offset="64.1690341%"></stop>
            <stop stop-color="#5AD830" offset="79.6219406%"></stop>
            <stop stop-color="#F6BE05" offset="91.0893794%"></stop>
            <stop stop-color="#FBB604" offset="100%"></stop>
        </linearGradient>
    </defs>
    <g id="EmpowerNow-Logo" stroke="none" fill="none" fill-rule="evenodd">
        <path d="M0,80.402 L356.848,80.402 L356.848,75.32 L0,75.32 L0,80.402 Z M329.888,59.312 L321.192,31.727 L328.333,31.727 L333.746,50.27 L333.977,50.27 L340.197,31.727 L346.474,31.727 L352.693,50.27 L352.923,50.27 L358.394,31.727 L365.535,31.727 L356.781,59.312 L349.583,59.312 L343.421,40.595 L343.248,40.595 L337.086,59.312 L329.888,59.312 Z M248.395,59.312 L241.081,59.312 L241.081,19 L248.567,19 L266.823,46.93 L266.996,46.93 L266.996,19 L274.309,19 L274.309,59.312 L266.823,59.312 L248.567,31.381 L248.395,31.381 L248.395,59.312 Z M226.165,59.312 L219.254,59.312 L219.254,31.727 L225.474,31.727 L225.877,35.931 L226.049,35.931 C227.374,32.994 230.254,31.209 233.594,31.209 C234.572,31.209 235.494,31.381 236.185,31.669 L236.185,38.004 C235.379,37.889 234.572,37.831 233.824,37.831 C228.756,37.831 226.165,40.538 226.165,46.181 L226.165,59.312 Z M200.939,36.737 C204.28,36.737 206.756,38.522 207.389,42.495 L193.683,42.495 C194.605,38.695 197.369,36.737 200.939,36.737 L200.939,36.737 Z M200.881,60.002 C207.447,60.002 212.457,56.547 213.897,50.673 L207.389,50.673 C206.295,52.919 203.934,54.186 200.997,54.186 C197.024,54.186 194.029,51.883 193.453,47.218 L214.07,47.218 C214.242,46.239 214.3,45.49 214.3,44.627 C214.3,36.333 208.656,31.036 200.939,31.036 C192.646,31.036 186.6,37.025 186.6,45.721 C186.6,54.186 192.416,60.002 200.881,60.002 L200.881,60.002 Z M149.509,59.312 L140.813,31.727 L147.954,31.727 L153.367,50.27 L153.598,50.27 L159.817,31.727 L166.094,31.727 L172.314,50.27 L172.544,50.27 L178.015,31.727 L185.156,31.727 L176.402,59.312 L169.204,59.312 L163.042,40.595 L162.869,40.595 L156.708,59.312 L149.509,59.312 Z M124.974,37.198 C129.235,37.198 132.288,40.422 132.288,45.548 C132.288,50.616 129.235,53.898 124.974,53.898 C120.712,53.898 117.661,50.616 117.661,45.548 C117.661,40.422 120.712,37.198 124.974,37.198 L124.974,37.198 Z M124.974,60.002 C133.267,60.002 139.314,54.071 139.314,45.548 C139.314,37.025 133.267,31.036 124.974,31.036 C116.681,31.036 110.634,37.025 110.634,45.548 C110.634,54.071 116.681,60.002 124.974,60.002 L124.974,60.002 Z M85.754,45.548 C85.754,40.307 88.749,37.198 92.895,37.198 C97.099,37.198 100.094,40.307 100.094,45.548 C100.094,50.731 97.099,53.84 92.895,53.84 C88.749,53.84 85.754,50.731 85.754,45.548 L85.754,45.548 Z M107.119,45.548 C107.119,36.852 101.591,31.036 94.507,31.036 C90.707,31.036 87.309,32.705 85.869,35.239 L85.639,35.239 L85.351,31.727 L79.074,31.727 L79.074,72.211 L85.984,72.211 L85.984,55.971 L86.157,55.971 C87.597,58.333 90.764,60.002 94.507,60.002 C101.533,60.002 107.119,54.186 107.119,45.548 L107.119,45.548 Z M72.678,42.035 L72.678,59.312 L65.768,59.312 L65.768,44.05 C65.768,39.271 63.982,37.371 60.988,37.371 C57.647,37.371 55.286,39.732 55.286,44.396 L55.286,59.312 L48.376,59.312 L48.376,44.05 C48.376,39.213 46.706,37.371 43.654,37.371 C40.256,37.371 37.952,39.789 37.952,44.396 L37.952,59.312 L31.042,59.312 L31.042,31.727 L37.319,31.727 L37.607,35.239 L37.837,35.239 C39.507,32.648 42.789,31.036 46.188,31.036 C49.643,31.036 52.35,32.648 53.904,35.758 L54.077,35.758 C55.978,32.936 59.375,31.036 63.291,31.036 C68.935,31.036 72.678,34.894 72.678,42.035 L72.678,42.035 Z M24.993,59.312 L0,59.312 L0,19 L24.993,19 L24.993,25.68 L7.314,25.68 L7.314,35.816 L23.265,35.816 L23.265,42.323 L7.314,42.323 L7.314,52.631 L24.993,52.631 L24.993,59.312 Z M287.616,34.392 L298.23,30.677 L308.845,34.392 L308.883,44.74 C308.869,46.301 308.865,52.621 298.23,56.151 C287.596,52.621 287.592,46.301 287.578,44.74 L287.616,34.392 Z M298.23,64.275 C298.23,64.275 315.951,59.123 315.934,46.788 C315.971,34.846 315.934,29.558 315.934,29.558 L298.23,23.55 L280.527,29.558 C280.527,29.558 280.489,34.846 280.527,46.788 C280.510111,59.123 298.23,64.275 298.23,64.275 L298.23,64.275 Z" id="Fill-1" fill="url(#linearGradient-1)"></path>
    </g>
</svg>
